X:574
T:Polska efter Olof Nordblad
T:(SvL Hälsingland 574)
R:Polska
B:Svenska Låtar Hälsingland
O:Norrala, Hälsingland
S:Olof Nordblad
M:3/4
L:1/8
K:Fm
FA/G/ F2 f2|=ef/g/ cB AG|FA/G/ F2 f2|=ef/g/ c4:|
|:((3ABA) ((3ABA) ((3ABA)|Bc d2c2|BA GF G=E|F2 F4:|

